src/images/ru.svg

<svg width="123" height="123" viewBox="0 0 123 123" fill="none" xmlns="http://www.w3.org/2000/svg">
<g clip-path="url(#clip0_283_1559)">
<path d="M61.4401 6.04868e-05C75.66 -0.0040042 89.4414 4.92291 100.436 13.9412C111.43 22.9595 118.957 35.5112 121.734 49.4573C124.511 63.4034 122.367 77.881 115.665 90.423C108.964 102.965 98.1215 112.795 84.9847 118.239C71.8479 123.682 57.23 124.402 43.622 120.275C30.014 116.149 18.258 107.431 10.3573 95.608C2.45649 83.785 -1.1001 69.5881 0.293534 55.4366C1.68717 41.2851 7.9448 28.0548 18.0001 18.0001C23.6968 12.2843 30.4675 7.75151 37.9227 4.66235C45.3778 1.5732 53.3703 -0.0112838 61.4401 6.04868e-05Z" fill="#FECB00"/>
<path fill-rule="evenodd" clip-rule="evenodd" d="M61.44 8.73998C68.361 8.73867 75.2145 10.1009 81.609 12.7489C88.0034 15.3968 93.8135 19.2786 98.7075 24.1725C103.601 29.0664 107.483 34.8766 110.131 41.271C112.779 47.6655 114.141 54.5189 114.14 61.44C114.14 61.75 114.14 62.05 114.14 62.36C113.96 52.3806 110.847 42.6749 105.19 34.4519C99.5333 26.2289 91.5819 19.8521 82.3266 16.116C73.0713 12.3798 62.9212 11.4495 53.1409 13.4408C43.3606 15.4322 34.3824 20.2572 27.3248 27.3148C20.2672 34.3724 15.4422 43.3506 13.4508 53.1309C11.4595 62.9112 12.3898 73.0612 16.126 82.3165C19.8621 91.5719 26.2389 99.5233 34.4619 105.18C42.6849 110.837 52.3907 113.95 62.37 114.13H61.45C47.4731 114.13 34.0686 108.578 24.1855 98.6945C14.3023 88.8113 8.75 75.4069 8.75 61.43C8.75 47.4531 14.3023 34.0486 24.1855 24.1655C34.0686 14.2823 47.4731 8.72998 61.45 8.72998L61.44 8.73998Z" fill="#D08B00"/>
<path fill-rule="evenodd" clip-rule="evenodd" d="M63.2802 12.4102C73.3413 12.4102 83.1765 15.3936 91.542 20.9833C99.9075 26.573 106.428 34.5178 110.278 43.813C114.128 53.1083 115.136 63.3366 113.173 73.2044C111.21 83.0722 106.365 92.1364 99.2507 99.2507C92.1364 106.365 83.0722 111.21 73.2044 113.173C63.3366 115.136 53.1083 114.128 43.813 110.278C34.5178 106.428 26.573 99.9075 20.9833 91.542C15.3936 83.1765 12.4102 73.3413 12.4102 63.2802C12.4102 49.7886 17.7697 36.8496 27.3096 27.3096C36.8496 17.7697 49.7886 12.4102 63.2802 12.4102Z" fill="#DB9300"/>
<path d="M42.3101 58.0899L46.0901 49.4099H60.3401C60.1424 48.7502 59.8236 48.133 59.4001 47.5899C58.934 46.9899 58.3733 46.4697 57.7401 46.0499C57.0508 45.6204 56.3077 45.2841 55.5301 45.0499C54.7176 44.7591 53.8629 44.6037 53.0001 44.5899H42.3101L46.0901 35.8999H86.8901L83.1101 44.5899H73.2501C73.652 44.9049 74.0176 45.2638 74.3401 45.6599C74.6735 46.0491 74.9714 46.4674 75.2301 46.9099C75.4674 47.331 75.6811 47.765 75.8701 48.2099C76.0295 48.5954 76.1436 48.9981 76.2101 49.4099H86.8901L83.1101 58.0899H75.3801C74.7876 59.6235 73.9314 61.0415 72.8501 62.2799C71.7221 63.6214 70.4284 64.8142 69.0001 65.8299C67.4853 66.8881 65.8589 67.7768 64.1501 68.4799C62.444 69.1726 60.6614 69.6594 58.8401 69.9299L80.2301 92.4399H63.2301L44.1701 70.9999V62.9999H52.6301C53.4476 63.0018 54.2595 62.8632 55.0301 62.5899C55.8068 62.3248 56.5436 61.9547 57.2201 61.4899C57.8807 61.0797 58.48 60.5781 59.0001 59.9999C59.4469 59.4368 59.7859 58.7961 60.0001 58.1099L42.3101 58.0899Z" fill="#B17600"/>
<path d="M39.6699 55.8599L43.4499 47.3499H57.6999C57.5014 46.7027 57.1825 46.0988 56.7599 45.5699C56.2944 44.9741 55.7295 44.4632 55.0899 44.0599C54.4053 43.6284 53.6652 43.292 52.8899 43.0599C52.0565 42.792 51.1853 42.6603 50.3099 42.6699H39.6699L43.4499 34.1499H84.2499L80.4699 42.6699H70.6099C71.0093 42.9617 71.3749 43.2971 71.6999 43.6699C72.0307 44.0541 72.3284 44.4656 72.5899 44.8999C72.827 45.3108 73.0407 45.7348 73.2299 46.1699C73.3833 46.5506 73.4972 46.946 73.5699 47.3499H84.2499L80.4699 55.8599H72.7399C72.1396 57.3745 71.2839 58.7748 70.2099 59.9999C69.0608 61.3224 67.7467 62.4919 66.2999 63.4799C64.7812 64.4963 63.1546 65.3415 61.4499 65.9999C59.7447 66.6785 57.966 67.1551 56.1499 67.4199L77.5899 89.5299H60.5899L41.4699 68.5299V60.7399H49.9999C50.8166 60.7405 51.6276 60.6053 52.3999 60.3399C53.1746 60.0743 53.9109 59.7078 54.5899 59.2499C55.2415 58.8197 55.8276 58.2976 56.3299 57.6999C56.7797 57.1574 57.1194 56.5324 57.3299 55.8599H39.6699Z" fill="#FECB00"/>
</g>
<defs>
<clipPath id="clip0_283_1559">
<rect width="122.88" height="122.88" fill="white"/>
</clipPath>
</defs>
</svg>

<svg id="Layer_1" data-name="Layer 1" xmlns="http://www.w3.org/2000/svg" viewBox="0 0 122.88 122.88"><defs><style>.cls-1{fill:#fecb00;}.cls-2{fill:#d08b00;}.cls-2,.cls-3{fill-rule:evenodd;}.cls-3{fill:#db9300;}.cls-4{fill:#b17600;}</style></defs><title>indian-rupee-coin-color</title><path class="cls-1" d="M61.44,0A61.46,61.46,0,1,1,18,18,61.21,61.21,0,0,1,61.44,0Z"/><path class="cls-2" d="M61.44,8.74a52.69,52.69,0,0,1,52.7,52.7c0,.31,0,.61,0,.92a50.86,50.86,0,1,0-51.77,51.77h-.92a52.7,52.7,0,0,1,0-105.4Z"/><path class="cls-3" d="M63.28,12.41A50.87,50.87,0,1,1,12.41,63.28,50.87,50.87,0,0,1,63.28,12.41Z"/><path class="cls-4" d="M42.31,58.09l3.78-8.68H60.34a5.55,5.55,0,0,0-.94-1.82,7,7,0,0,0-1.66-1.54,9.19,9.19,0,0,0-2.21-1A7.88,7.88,0,0,0,53,44.59H42.31l3.78-8.69h40.8l-3.78,8.69H73.25a6.87,6.87,0,0,1,1.09,1.07,8.56,8.56,0,0,1,.89,1.25,13,13,0,0,1,.64,1.3,5.38,5.38,0,0,1,.34,1.2H86.89l-3.78,8.68H75.38a14.09,14.09,0,0,1-2.53,4.19A20.71,20.71,0,0,1,69,65.83a25.24,25.24,0,0,1-4.85,2.65,23.16,23.16,0,0,1-5.31,1.45L80.23,92.44h-17L44.17,71v-8h8.46a7.13,7.13,0,0,0,2.4-.41,9,9,0,0,0,2.19-1.1A8.24,8.24,0,0,0,59,60a5.84,5.84,0,0,0,1-1.89Z"/><path class="cls-1" d="M39.67,55.86l3.78-8.51H57.7a5.38,5.38,0,0,0-.94-1.78,6.56,6.56,0,0,0-1.67-1.51,8.93,8.93,0,0,0-2.2-1,8.14,8.14,0,0,0-2.58-.39H39.67l3.78-8.52h40.8l-3.78,8.52H70.61a6.65,6.65,0,0,1,1.09,1,9,9,0,0,1,.89,1.23,12.59,12.59,0,0,1,.64,1.27,6,6,0,0,1,.34,1.18H84.25l-3.78,8.51H72.74A14.24,14.24,0,0,1,70.21,60a20.48,20.48,0,0,1-3.91,3.48A24.76,24.76,0,0,1,61.45,66a23.51,23.51,0,0,1-5.3,1.42L77.59,89.53h-17l-19.12-21V60.74H50a7.37,7.37,0,0,0,2.4-.4,9.33,9.33,0,0,0,2.19-1.09,8.11,8.11,0,0,0,1.74-1.55,5.42,5.42,0,0,0,1-1.84Z"/></svg>
